X:1
T: Hornpipe
P:Kerr's 2nd #391
R:Reel
Q: 232
K:Bb
M:4/4
L:1/8
|:F1/2E1/2D1/2C1/2|B,2 DF BA cB|G2 ce g^f ag|f=e gf _ec AF|((3Bdc) ((3BAG) FE DC|
B,2 DF BA cB|G2 ce g^f ag|fe cA F^F GA|B2 B2 B2:|
|:cB|A2 A,C EF Ac|B2 B,D FB df|=e2 =EG Bc eg|f=e ge f2 cB|
A2 A,C EF Ac|B2 B,D FB df|=ec =Bc dc be|f=e ge f2:|
